X:1
T: Te Keli
C:
R:Jig
Q:180
K:D
M:6/8
L:1/16
|:A2|d4d2 d2c2d2|B4d2 A6|A2B2c2 d2e2f2|g4e2 c4A2|
d4d2 d2c2d2|B2c2d2 A6|A2B2c2 d2e2f2|g2e2c2 d4:|
|:e2|f4f2 f2e2f2|a4f2 e4d2|efg2e2 c4A2|efg2e2 c4A2|
f4f2 f2e2f2|a4f2 e4d2|A2B2c2 d2e2f2|g2e2c2 d4:|
